sources/design/Outline/ീ.svg

<svg:svg xmlns:cc="http://creativecommons.org/ns#" xmlns:dc="http://purl.org/dc/elements/1.1/" xmlns:inkscape="http://www.inkscape.org/namespaces/inkscape" xmlns:rdf="http://www.w3.org/1999/02/22-rdf-syntax-ns#" xmlns:sodipodi="http://sodipodi.sourceforge.net/DTD/sodipodi-0.dtd" xmlns:svg="http://www.w3.org/2000/svg" xml:space="preserve" width="1000" height="1000" version="1.1" style="clip-rule:evenodd;fill-rule:evenodd;image-rendering:optimizeQuality;shape-rendering:geometricPrecision;text-rendering:geometricPrecision" viewBox="0 0 1000 1000" id="svg10" sodipodi:docname="ീ.svg" inkscape:version="1.1.1 (3bf5ae0d25, 2021-09-20)"><svg:metadata id="metadata14"><rdf:RDF><cc:Work rdf:about=""><dc:format>image/svg+xml</dc:format><dc:type rdf:resource="http://purl.org/dc/dcmitype/StillImage" /></cc:Work></rdf:RDF></svg:metadata><sodipodi:namedview pagecolor="#ffffff" bordercolor="#666666" borderopacity="1" objecttolerance="10" gridtolerance="10" guidetolerance="10" inkscape:pageopacity="0" inkscape:pageshadow="2" inkscape:window-width="1920" inkscape:window-height="1009" id="namedview12" showgrid="false" inkscape:zoom="0.79682018" inkscape:cx="148.71611" inkscape:cy="392.81134" inkscape:window-x="0" inkscape:window-y="0" inkscape:window-maximized="1" inkscape:current-layer="svg10" showguides="true" inkscape:guide-bbox="true" inkscape:document-rotation="0" inkscape:snap-object-midpoints="false" inkscape:snap-page="false" inkscape:pagecheckerboard="0"><sodipodi:guide position="0,1000" orientation="0,1" id="guide16" inkscape:label="" inkscape:locked="true" inkscape:color="rgb(0,0,255)" /><sodipodi:guide position="1763.3122,2036.1693" orientation="1000,0" id="guide18" /><sodipodi:guide position="0,200" orientation="0,1" id="guide20" inkscape:label="base" inkscape:locked="true" inkscape:color="rgb(0,0,255)" /><inkscape:grid type="xygrid" id="grid24" originx="-473.37552" originy="-489.69235" /><sodipodi:guide position="0,0" orientation="0,1" id="guide34" inkscape:label="bottom" inkscape:locked="true" inkscape:color="rgb(0,0,255)" /><sodipodi:guide position="225.05109,1693.3186" orientation="0,1" id="guide44" inkscape:label="" inkscape:locked="false" inkscape:color="rgb(0,0,255)" /><sodipodi:guide position="0,900" orientation="0,1" id="guide46" inkscape:label="" inkscape:locked="true" inkscape:color="rgb(0,0,255)" /><sodipodi:guide position="189.82655,900" orientation="-1,0" id="guide841" inkscape:label="width" inkscape:locked="false" inkscape:color="rgb(0,0,255)" /><sodipodi:guide position="0,1000" orientation="0,1000" id="guide860" /><sodipodi:guide position="1000,1000" orientation="1000,0" id="guide862" /><sodipodi:guide position="1000,0" orientation="0,-1000" id="guide864" /><sodipodi:guide position="0,0" orientation="-1000,0" id="guide866" /></sodipodi:namedview>
 <svg:defs id="defs4"><inkscape:path-effect effect="fillet_chamfer" id="path-effect855" is_visible="true" lpeversion="1" satellites_param="F,0,0,1,0,0,0,1 @ F,0,0,1,0,0,0,1 @ F,0,0,1,0,0,0,1 @ F,0,0,1,0,0,0,1 @ F,0,0,1,0,0,0,1 @ F,0,0,1,0,0,0,1 @ F,0,0,1,0,0,0,1 @ F,0,0,1,0,0,0,1 @ F,0,0,1,0,0,0,1 @ F,0,0,1,0,0,0,1 @ F,0,0,1,0,0,0,1 @ F,0,0,1,0,0,0,1 @ F,0,0,1,0,0,0,1 @ F,0,0,1,0,0,0,1 @ F,0,0,1,0,0,0,1 @ F,0,0,1,0,14.754349,0,1 @ F,0,0,1,0,18.826661,0,1 @ F,0,0,1,0,0,0,1 @ F,0,0,1,0,0,0,1 @ F,0,0,1,0,0,0,1 @ F,0,0,1,0,0,0,1 @ F,0,0,1,0,0,0,1 @ F,0,0,1,0,0,0,1 @ F,0,0,1,0,0,0,1 @ F,0,0,1,0,0,0,1 @ F,0,0,1,0,0,0,1 @ F,0,0,1,0,0,0,1 @ F,0,0,1,0,0,0,1 @ F,0,0,1,0,0,0,1 @ F,0,0,1,0,0,0,1 @ F,0,0,1,0,0,0,1" unit="px" method="auto" mode="F" radius="0" chamfer_steps="1" flexible="false" use_knot_distance="true" apply_no_radius="true" apply_with_radius="true" only_selected="true" hide_knots="false" /><inkscape:path-effect effect="spiro" id="path-effect858" is_visible="true" lpeversion="1" /><inkscape:path-effect effect="spiro" id="path-effect854" is_visible="true" lpeversion="1" />
  <svg:style type="text/css" id="style2">
   
    .fil0 {fill:#EF7F1A;fill-rule:nonzero}
   
  </svg:style>
 <inkscape:path-effect effect="spiro" id="path-effect1214" is_visible="true" lpeversion="1" /><inkscape:path-effect effect="spiro" id="path-effect1195" is_visible="true" lpeversion="1" /><inkscape:path-effect effect="spiro" id="path-effect992" is_visible="true" lpeversion="1" /><inkscape:path-effect effect="spiro" id="path-effect287" is_visible="true" lpeversion="1" /><inkscape:path-effect effect="spiro" id="path-effect1032" is_visible="true" lpeversion="1" /><inkscape:path-effect effect="spiro" id="path-effect1218" is_visible="true" lpeversion="1" /><inkscape:path-effect effect="spiro" id="path-effect309" is_visible="true" lpeversion="1" /><inkscape:path-effect effect="spiro" id="path-effect1525" is_visible="true" lpeversion="1" /><inkscape:path-effect effect="spiro" id="path-effect1343" is_visible="true" lpeversion="1" /></svg:defs>
 
<svg:g id="path979-0-6-9"><svg:path style="color:#000000;clip-rule:nonzero;fill:#1a5fb4;fill-rule:nonzero;stroke-linecap:round;stroke-linejoin:round;-inkscape-stroke:none;paint-order:fill stroke markers;shape-rendering:auto" d="M -191.39062,-214.41016 C -228.91919000000001,-213.90608 -266.92150000000004,-207.05555999999999 -302.31445,-189.64061999999998 C -330.74012000000005,-175.65391 -356.58051,-155.02864999999997 -375.37109000000004,-127.93749999999999 C -394.25907000000007,-100.70593999999998 -405.33248000000003,-67.62355799999999 -404.13672,-33.244140999999985 C -403.26230000000004,-8.103627999999986 -395.87703000000005,16.033816000000016 -383.81836000000004,37.283203000000015 C -371.78824000000003,58.48227600000001 -355.35919,76.44878100000001 -336.50977000000006,90.72265600000001 C -298.84881000000007,119.24171000000001 -253.19803000000007,132.08538000000001 -208.87891000000008,134.74023000000003 C -144.93518000000006,138.57066000000003 -80.69355000000007,121.65514000000003 -26.687500000000085,87.63476600000003 C -14.691581,80.078099 -3.3078129,71.62462 7.5273437,62.529297 C 14.857787,71.58274 21.622079,81.03559 27.474609,91.001953 C 53.309216,134.9961 64.5262,188.4713 66.357422,242.77734 C 68.194103,297.2453 61.091489,353.29076 54.212891,410.8125 C 42.448478,509.19148 32.368404,606.72307 12.292969,701.22266 C 2.704733599999999,746.35663 -9.1937128,791.0032600000001 -23.337891,834.92383 C -27.049422999999997,846.44889 -27.004105,863.19616 -15.896484,875.62109 C -4.7888639999999985,888.04603 12.064427,889.96389 23.96875,887.4375 L 140.67578,862.66992 C 164.49678,857.61451 179.83057,834.87562 176.15625,811.11328 C 170.18818,772.5169500000001 166.77258,733.52146 165.94531,694.4765600000001 C 163.83466,594.8588900000001 178.62654,494.03541000000007 193.55664000000002,392.0820300000001 C 203.89287,321.4989 214.5745,248.65709 211.75,173.78906 C 208.91766,98.71328 191.75256,21.059564 148.60937,-44.611328 C 117.94237,-91.291466 75.780842,-129.12316 28.226562,-156.58984 C -19.270215999999998,-184.02332 -71.758816,-201.06826 -125.01758000000001,-209.375 C -146.52592,-212.72964 -168.87349,-214.7126 -191.39062,-214.41016 M -190.24219000000002,-154.28906 C -171.84339000000003,-154.55773 -152.99473000000003,-153.01297 -134.26562,-150.0918 C -99.95301500000002,-144.74008 -66.39998700000001,-135.24887 -35.082031000000015,-121.44141 A 30.003,30.003 0.0 0,0 -46.148437000000015,-110.70508000000001 C -53.955171000000014,-96.82205700000002 -63.053567000000015,-83.649623 -73.15625000000001,-71.296875 C -98.92117100000002,-82.7566 -126.70555000000002,-91.643727 -156.32422000000003,-94.607422 C -189.41222000000002,-97.918264 -224.29743000000002,-93.803163 -256.04102,-78.669922 C -270.41717,-71.816323 -285.65871,-62.053613999999996 -297.46289,-46.460937 C -303.39311000000004,-38.627443 -308.25589,-29.501507 -311.10156,-19.140625 C -313.96508,-8.714754 -314.67912,2.593554900000001 -312.2832,14.066406 C -309.72505,26.316111 -303.91224,36.841254 -296.38672,45.566406 C -297.67708000000005,44.661713 -299.03737,43.838478 -300.28906,42.890625 C -313.15222,33.149894 -324.03183,21.069516 -331.63477,7.671875 C -339.20915,-5.6754517 -343.66551,-20.715371 -344.17383,-35.330078 C -344.8655,-55.216405 -338.12681000000003,-76.35507100000001 -326.06836,-93.740234 C -313.91252,-111.26581 -296.12064,-125.81889000000001 -275.82617,-135.80469 C -250.31895,-148.3554 -220.90685,-153.84127999999998 -190.24219,-154.28906 L -190.24219000000002,-154.28906 M -13.876953000000015,-50.046875 L 10.609374999999986,-27.931641 C 9.295831299999985,-26.140235999999998 8.020905999999986,-24.323361 6.660156199999985,-22.566406 C -1.8487885000000155,-29.464329 -10.598104000000014,-36.038896 -19.703125000000014,-42.085937 C -17.707452000000014,-44.699188 -15.795631000000014,-47.375936 -13.876953000000015,-50.046875 M 79.61523399999999,-36.84375 C 86.37665899999999,-28.784859 92.718764,-20.411457 98.46289099999998,-11.667969 C 133.61217,41.834908 149.2497,108.63727 151.79296999999997,176.05078 C 154.34407999999996,243.67205 144.51390999999998,312.8859 134.18944999999997,383.38867 C 119.26892999999997,485.27666999999997 103.70565999999997,589.39649 105.95897999999997,695.7480499999999 C 106.74613999999997,732.8996699999999 109.85165999999997,769.98182 114.99999999999997,806.7812499999999 L 43.425781,821.97266 C 54.020188,786.2563 63.240616,750.13383 70.982422,713.69141 C 91.946725,615.00772 102.1017,515.65385 113.78711,417.93555 C 120.62097,360.7879 128.37957,301.70868 126.32422,240.75586 C 124.26341,179.64114 111.85768,116.21045 79.212891,60.619141 C 70.595514,45.944477 60.717014,32.210916 49.861328,19.378906 C 59.311986,7.6905934 68.032213,-4.598857 75.716797,-17.556641 A 30.003,30.003 0.0 0,0 79.615234,-36.84375 L 79.61523399999999,-36.84375 M -180.1875,-35.626953 C -174.25835,-35.746257 -168.27168,-35.502146 -162.29687,-34.904297 C -148.48202,-33.521959 -134.57549,-30.15607 -120.75586000000001,-25.550781 C -148.18676000000002,-4.982512700000001 -179.28005000000002,9.726652000000001 -210.98047000000003,14.089844 C -223.62637000000004,15.830404999999999 -234.53445000000002,15.314318 -241.97070000000002,12.478515999999999 C -245.60540000000003,11.092431999999999 -248.56493000000003,9.111904699999998 -250.42578000000003,7.187499999999999 C -252.20174000000003,5.350890099999999 -253.27180000000004,3.1366683999999987 -253.55078000000003,1.8007811999999994 C -253.78815000000003,0.6641601399999995 -253.79225000000002,-1.2543672000000008 -253.24414000000004,-3.250000000000001 C -252.67818000000005,-5.310622 -251.46983000000003,-7.8091683000000005 -249.62500000000006,-10.246094000000001 C -245.87907000000007,-15.194256000000001 -239.10003000000006,-20.276689 -230.22070000000005,-24.509766 C -215.25523000000004,-31.644311 -197.97496000000007,-35.269041 -180.18750000000006,-35.626953 L -180.1875,-35.626953 M -60.990234,2.8125 C -52.214356,8.2551749 -43.728951,14.095539 -35.625,20.402344 C -43.004778,26.313589999999998 -50.68337,31.838628 -58.666016,36.867187 C -102.01534000000001,64.174504 -154.37911,77.897438 -205.29102,74.847656 C -207.16316,74.73550900000001 -209.01726,74.504895 -210.88281,74.345703 C -208.17165,74.083476 -205.39063000000002,73.88576 -202.80078,73.529297 C -155.01153,66.951664 -112.05141,44.707576 -76.435547,16.109375 C -71.133814,11.852283 -66.018606,7.380264199999999 -60.990234,2.8125" id="path14215" /></svg:g></svg:svg>

<svg:svg xmlns:cc="http://creativecommons.org/ns#" xmlns:dc="http://purl.org/dc/elements/1.1/" xmlns:inkscape="http://www.inkscape.org/namespaces/inkscape" xmlns:rdf="http://www.w3.org/1999/02/22-rdf-syntax-ns#" xmlns:sodipodi="http://sodipodi.sourceforge.net/DTD/sodipodi-0.dtd" xmlns:svg="http://www.w3.org/2000/svg" xml:space="preserve" width="1000" height="1000" version="1.1" style="clip-rule:evenodd;fill-rule:evenodd;image-rendering:optimizeQuality;shape-rendering:geometricPrecision;text-rendering:geometricPrecision" viewBox="0 0 1000 1000" id="svg10" sodipodi:docname="ീ.svg" inkscape:version="1.1.1 (3bf5ae0d25, 2021-09-20)"><svg:metadata id="metadata14"><rdf:RDF><cc:Work rdf:about=""><dc:format>image/svg+xml</dc:format><dc:type rdf:resource="http://purl.org/dc/dcmitype/StillImage" /></cc:Work></rdf:RDF></svg:metadata><sodipodi:namedview pagecolor="#ffffff" bordercolor="#666666" borderopacity="1" objecttolerance="10" gridtolerance="10" guidetolerance="10" inkscape:pageopacity="0" inkscape:pageshadow="2" inkscape:window-width="1920" inkscape:window-height="1009" id="namedview12" showgrid="false" inkscape:zoom="0.79682018" inkscape:cx="148.71611" inkscape:cy="392.81134" inkscape:window-x="0" inkscape:window-y="0" inkscape:window-maximized="1" inkscape:current-layer="svg10" showguides="true" inkscape:guide-bbox="true" inkscape:document-rotation="0" inkscape:snap-object-midpoints="false" inkscape:snap-page="false" inkscape:pagecheckerboard="0"><sodipodi:guide position="0,1000" orientation="0,1" id="guide16" inkscape:label="" inkscape:locked="true" inkscape:color="rgb(0,0,255)" /><sodipodi:guide position="1763.3122,2036.1693" orientation="1000,0" id="guide18" /><sodipodi:guide position="0,200" orientation="0,1" id="guide20" inkscape:label="base" inkscape:locked="true" inkscape:color="rgb(0,0,255)" /><inkscape:grid type="xygrid" id="grid24" originx="-473.37552" originy="-489.69235" /><sodipodi:guide position="0,0" orientation="0,1" id="guide34" inkscape:label="bottom" inkscape:locked="true" inkscape:color="rgb(0,0,255)" /><sodipodi:guide position="225.05109,1693.3186" orientation="0,1" id="guide44" inkscape:label="" inkscape:locked="false" inkscape:color="rgb(0,0,255)" /><sodipodi:guide position="0,900" orientation="0,1" id="guide46" inkscape:label="" inkscape:locked="true" inkscape:color="rgb(0,0,255)" /><sodipodi:guide position="189.82655,900" orientation="-1,0" id="guide841" inkscape:label="width" inkscape:locked="false" inkscape:color="rgb(0,0,255)" /><sodipodi:guide position="0,1000" orientation="0,1000" id="guide860" /><sodipodi:guide position="1000,1000" orientation="1000,0" id="guide862" /><sodipodi:guide position="1000,0" orientation="0,-1000" id="guide864" /><sodipodi:guide position="0,0" orientation="-1000,0" id="guide866" /></sodipodi:namedview>
 <svg:defs id="defs4"><inkscape:path-effect effect="fillet_chamfer" id="path-effect855" is_visible="true" lpeversion="1" satellites_param="F,0,0,1,0,0,0,1 @ F,0,0,1,0,0,0,1 @ F,0,0,1,0,0,0,1 @ F,0,0,1,0,0,0,1 @ F,0,0,1,0,0,0,1 @ F,0,0,1,0,0,0,1 @ F,0,0,1,0,0,0,1 @ F,0,0,1,0,0,0,1 @ F,0,0,1,0,0,0,1 @ F,0,0,1,0,0,0,1 @ F,0,0,1,0,0,0,1 @ F,0,0,1,0,0,0,1 @ F,0,0,1,0,0,0,1 @ F,0,0,1,0,0,0,1 @ F,0,0,1,0,0,0,1 @ F,0,0,1,0,14.754349,0,1 @ F,0,0,1,0,18.826661,0,1 @ F,0,0,1,0,0,0,1 @ F,0,0,1,0,0,0,1 @ F,0,0,1,0,0,0,1 @ F,0,0,1,0,0,0,1 @ F,0,0,1,0,0,0,1 @ F,0,0,1,0,0,0,1 @ F,0,0,1,0,0,0,1 @ F,0,0,1,0,0,0,1 @ F,0,0,1,0,0,0,1 @ F,0,0,1,0,0,0,1 @ F,0,0,1,0,0,0,1 @ F,0,0,1,0,0,0,1 @ F,0,0,1,0,0,0,1 @ F,0,0,1,0,0,0,1" unit="px" method="auto" mode="F" radius="0" chamfer_steps="1" flexible="false" use_knot_distance="true" apply_no_radius="true" apply_with_radius="true" only_selected="true" hide_knots="false" /><inkscape:path-effect effect="spiro" id="path-effect858" is_visible="true" lpeversion="1" /><inkscape:path-effect effect="spiro" id="path-effect854" is_visible="true" lpeversion="1" />
  <svg:style type="text/css" id="style2">
   
    .fil0 {fill:#EF7F1A;fill-rule:nonzero}
   
  </svg:style>
 <inkscape:path-effect effect="spiro" id="path-effect1214" is_visible="true" lpeversion="1" /><inkscape:path-effect effect="spiro" id="path-effect1195" is_visible="true" lpeversion="1" /><inkscape:path-effect effect="spiro" id="path-effect992" is_visible="true" lpeversion="1" /><inkscape:path-effect effect="spiro" id="path-effect287" is_visible="true" lpeversion="1" /><inkscape:path-effect effect="spiro" id="path-effect1032" is_visible="true" lpeversion="1" /><inkscape:path-effect effect="spiro" id="path-effect1218" is_visible="true" lpeversion="1" /><inkscape:path-effect effect="spiro" id="path-effect309" is_visible="true" lpeversion="1" /><inkscape:path-effect effect="spiro" id="path-effect1525" is_visible="true" lpeversion="1" /><inkscape:path-effect effect="spiro" id="path-effect1343" is_visible="true" lpeversion="1" /></svg:defs>
 
<svg:g id="path979-0-6-9"><svg:path style="color:#000000;clip-rule:nonzero;fill:#1a5fb4;fill-rule:nonzero;stroke-linecap:round;stroke-linejoin:round;-inkscape-stroke:none;shape-rendering:auto" d="m -191.39062,-214.41016 c -37.52857,0.50408 -75.53088,7.3546 -110.92383,24.76954 -28.42567,13.98671 -54.26606,34.61197 -73.05664,61.70312 -18.88798,27.23156 -29.96139,60.313942 -28.76563,94.693359 0.87442,25.140513 8.25969,49.277957 20.31836,70.527344 12.03012,21.199073 28.45917,39.165578 47.30859,53.439453 37.66096,28.519054 83.31174,41.362724 127.63086,44.017574 63.94373,3.83043 128.18536,-13.08509 182.19141,-47.105464 C -14.691581,80.078099 -3.3078129,71.62462 7.5273437,62.529297 14.857787,71.58274 21.622079,81.03559 27.474609,91.001953 53.309216,134.9961 64.5262,188.4713 66.357422,242.77734 68.194103,297.2453 61.091489,353.29076 54.212891,410.8125 42.448478,509.19148 32.368404,606.72307 12.292969,701.22266 c -9.5882354,45.13397 -21.4866818,89.7806 -35.63086,133.70117 -3.711532,11.52506 -3.666214,28.27233 7.441407,40.69726 11.10762,12.42494 27.960911,14.3428 39.865234,11.81641 l 116.70703,-24.76758 c 23.821,-5.05541 39.15479,-27.7943 35.48047,-51.55664 -5.96807,-38.59633 -9.38367,-77.59182 -10.21094,-116.63672 -2.11065,-99.61767 12.68123,-200.44115 27.61133,-302.39453 C 203.89287,321.4989 214.5745,248.65709 211.75,173.78906 208.91766,98.71328 191.75256,21.059564 148.60937,-44.611328 117.94237,-91.291466 75.780842,-129.12316 28.226562,-156.58984 c -47.496778,-27.43348 -99.985378,-44.47842 -153.244142,-52.78516 -21.50834,-3.35464 -43.85591,-5.3376 -66.37304,-5.03516 z m 1.14843,60.1211 c 18.3988,-0.26867 37.24746,1.27609 55.97657,4.19726 34.312605,5.35172 67.865633,14.84293 99.183589,28.65039 a 30.003,30.003 0 0 0 -11.066406,10.73633 c -7.806734,13.883023 -16.90513,27.055457 -27.007813,39.408205 -25.764921,-11.459725 -53.5493,-20.346852 -83.16797,-23.310547 -33.088,-3.310842 -67.97321,0.804259 -99.7168,15.9375 -14.37615,6.853599 -29.61769,16.616308 -41.42187,32.208985 -5.93022,7.833494 -10.793,16.95943 -13.63867,27.320312 -2.86352,10.425871 -3.57756,21.7341799 -1.18164,33.207031 2.55815,12.249705 8.37096,22.774848 15.89648,31.5 -1.29036,-0.904693 -2.65065,-1.727928 -3.90234,-2.675781 -12.86316,-9.740731 -23.74277,-21.821109 -31.34571,-35.21875 -7.57438,-13.3473267 -12.03074,-28.387246 -12.53906,-43.001953 -0.69167,-19.886327 6.04702,-41.024993 18.10547,-58.410156 12.15584,-17.525576 29.94772,-32.078656 50.24219,-42.064456 25.50722,-12.55071 54.91932,-18.03659 85.58398,-18.48437 z m 176.365237,104.242185 24.486328,22.115234 c -1.3135437,1.791405 -2.588469,3.60828 -3.9492188,5.365235 -8.5089447,-6.897923 -17.2582602,-13.47249 -26.3632812,-19.519531 1.995673,-2.613251 3.907494,-5.289999 5.826172,-7.960938 z m 93.492187,13.203125 c 6.761425,8.058891 13.10353,16.432293 18.847657,25.175781 35.149279,53.502877 50.786809,120.305239 53.330079,187.718749 2.55111,67.62127 -7.27906,136.83512 -17.60352,207.33789 -14.92052,101.888 -30.48379,206.00782 -28.23047,312.35938 0.78716,37.15162 3.89268,74.23377 9.04102,111.0332 L 43.425781,821.97266 C 54.020188,786.2563 63.240616,750.13383 70.982422,713.69141 91.946725,615.00772 102.1017,515.65385 113.78711,417.93555 120.62097,360.7879 128.37957,301.70868 126.32422,240.75586 124.26341,179.64114 111.85768,116.21045 79.212891,60.619141 70.595514,45.944477 60.717014,32.210916 49.861328,19.378906 59.311986,7.6905934 68.032213,-4.598857 75.716797,-17.556641 a 30.003,30.003 0 0 0 3.898437,-19.287109 z m -259.802734,1.216797 c 5.92915,-0.119304 11.91582,0.124807 17.89063,0.722656 13.81485,1.382338 27.72138,4.748227 41.54101,9.353516 -27.4309,20.5682683 -58.52419,35.277433 -90.22461,39.640625 -12.6459,1.740561 -23.55398,1.224474 -30.99023,-1.611328 -3.6347,-1.386084 -6.59423,-3.3666113 -8.45508,-5.291016 -1.77596,-1.8366099 -2.84602,-4.0508316 -3.125,-5.3867188 -0.23737,-1.13662106 -0.24147,-3.0551484 0.30664,-5.0507812 0.56596,-2.060622 1.77431,-4.5591683 3.61914,-6.996094 3.74593,-4.948162 10.52497,-10.030595 19.4043,-14.263672 14.96547,-7.134545 32.24574,-10.759275 50.0332,-11.117187 z M -60.990234,2.8125 c 8.775878,5.4426749 17.261283,11.283039 25.365234,17.589844 -7.379778,5.911246 -15.05837,11.436284 -23.041016,16.464843 -43.349324,27.307317 -95.713094,41.030251 -146.625004,37.980469 -1.87214,-0.112147 -3.72624,-0.342761 -5.59179,-0.501953 2.71116,-0.262227 5.49218,-0.459943 8.08203,-0.816406 47.78925,-6.577633 90.74937,-28.821721 126.365233,-57.419922 5.301733,-4.257092 10.416941,-8.7291108 15.445313,-13.296875 z" id="path14179" /></svg:g></svg:svg>
